!!!COM: des Prez, Josquin
!!!CDT: ~1450-1521/08/27
!!!OPR: Missa Faisant regretz
!!!ONM: 2
!!!OTL: Gloria
!!!AGN: Mass; Gloria
!!!SCT: NJE 8.1
!!!SCA: New Josquin Edition 8.1
!!!voices: 4
!!!voices-OPR: 4
**kern	**text	**kern	**text	**kern	**text	**kern	**text
*staff4	*staff4	*staff3	*staff3	*staff2	*staff2	*staff1	*staff1
*Ivox	*	*Ivox	*	*Ivox	*	*Ivox	*
*I"Bassus	*	*I"Tenor	*	*I"Altus	*	*I"Superius	*
*I'B	*	*I'T	*	*I'A	*	*I'S	*
*>[A,B]	*>[A,B]	*>[A,B]	*>[A,B]	*>[A,B]	*>[A,B]	*>[A,B]	*>[A,B]
*>A	*>A	*>A	*>A	*>A	*>A	*>A	*>A
*clefF4	*	*clefGv2	*	*clefGv2	*	*clefG2	*
*k[b-]	*	*k[b-]	*	*k[b-]	*	*k[b-]	*
*M3/1	*	*M3/1	*	*M3/1	*	*M3/1	*
*met(O)	*	*met(O)	*	*met(O)	*	*met(O)	*
!!section: Et in terra pax
!!!OMD: Et in terra pax
=1-	=1-	=1-	=1-	=1-	=1-	=1-	=1-
0.r	.	0.r	.	1B-	Et	0.r	.
.	.	.	.	1G	in	.	.
.	.	.	.	1A	ter-	.	.
=2	=2	=2	=2	=2	=2	=2	=2
1B-	Et	0.r	.	2G/	-ra	0.r	.
.	.	.	.	2.B-\	pax	.	.
1G	in	.	.	.	.	.	.
.	.	.	.	4A/	.	.	.
.	.	.	.	2G/	.	.	.
1A	ter-	.	.	2F/	.	.	.
.	.	.	.	2D/	.	.	.
=3	=3	=3	=3	=3	=3	=3	=3
2G\	-ra	1B-	Et	2E-/	.	0.r	.
2.B-\	pax	.	.	2D/	.	.	.
.	.	1G	in	1E-i	.	.	.
4A\	.	.	.	.	.	.	.
2G\	.	.	.	.	.	.	.
2F\	.	1A	ter-	2D/	.	.	.
2D\	ho-	.	.	2d\	ho-	.	.
=4	=4	=4	=4	=4	=4	=4	=4
2E-i\	-mi-	2G/	.	2c\	-mi-	1r	.
2D\	.	1B-	.	2d\	.	.	.
1E-i	-ni-	.	.	1G	-ni-	1r	.
.	.	2G/	.	.	.	.	.
1D	-bus,	1A	-ra	1d	-bus,	1f	Et
=5	=5	=5	=5	=5	=5	=5	=5
0.r	.	1G	pax	2r	.	1g	in
.	.	.	.	2B-\	ho-	.	.
.	.	1r	.	2c\	-mi-	1.a	ter-
.	.	.	.	2.d\	.	.	.
.	.	1r	.	.	.	.	.
.	.	.	.	4c\	.	.	.
.	.	.	.	4B-\	.	4g/	.
.	.	.	.	4A/	.	4a/	.
=6	=6	=6	=6	=6	=6	=6	=6
0.r	.	0.r	.	2G/	.	1b-	.
.	.	.	.	2g\	.	.	.
.	.	.	.	4e\	.	2cc\	.
.	.	.	.	4c\	.	.	.
.	.	.	.	2.g\	.	2b-\	.
.	.	.	.	.	.	1a	-ra
.	.	.	.	4e\	.	.	.
.	.	.	.	2f#i\	-ni-	.	.
=7	=7	=7	=7	=7	=7	=7	=7
2r	.	1B-	ho-	1g	-bus	1g	pax
2G\	ho-	.	.	.	.	.	.
4E\	.	1G	-mi-	1r	.	2r	.
4C/	.	.	.	.	.	.	.
2.G\	-mi-	.	.	.	.	2g/	ho-
.	.	1A	-ni-	1r	.	1cc	.
4E\	.	.	.	.	.	.	.
2F#i\	-ni-	.	.	.	.	.	.
=8	=8	=8	=8	=8	=8	=8	=8
0.G	-bus	1G	-bus	2r	.	2.b-\	-mi-
.	.	.	.	1g	bo-	.	.
.	.	.	.	.	.	4a/	.
.	.	1r	.	.	.	2b-\	.
.	.	.	.	2e\	.	1cc	.
.	.	1r	.	1d	-ne	.	.
.	.	.	.	.	.	2bni\	-ni-
=9	=9	=9	=9	=9	=9	=9	=9
2r	.	1e-	bo-	2.c\	vo-	0cc	-bus
2.c\	bo-	.	.	.	.	.	.
.	.	.	.	4d\	.	.	.
.	.	1c	.	2e\	.	.	.
4B-\	.	.	.	.	.	.	.
2A\	.	.	.	2f\	.	.	.
1G	-ne	1d	.	2g\	-lun-	1b-	bo-
.	.	.	.	2d\	.	.	.
=10	=10	=10	=10	=10	=10	=10	=10
2r	.	2c\	-ne	2.e-\	-ta-	2a/	-ne
2.c\	vo-	1e-i	vo-	.	.	2g/	.
.	.	.	.	4c\	.	.	.
.	.	.	.	4c\	.	1cc	vo-
4B-\	.	.	.	4d\	.	.	.
2A\	.	2c\	-lun-	4e-i\	.	.	.
.	.	.	.	4f\	.	.	.
2G\	-lun-	1d	-ta-	4g\	.	2b-\	-lun-
.	.	.	.	4d\	.	.	.
2F\	.	.	.	[2f\	.	2a/	.
=11	=11	=11	=11	=11	=11	=11	=11
2.A\	-ta-	1c	-tis.	4f\]	.	2.cc\	-ta-
.	.	.	.	4eni\	.	.	.
.	.	.	.	2c\	.	.	.
4G\	.	.	.	.	.	4b-\	.
2F\	.	1r	.	2d\	.	4a/	.
.	.	.	.	.	.	4g/	.
2E\	.	.	.	2G/	.	1g	.
1D	-tis.	1r	.	1A	.	.	.
.	.	.	.	.	.	2f#i/	.
=12	=12	=12	=12	=12	=12	=12	=12
2r	.	0.r	.	2G/	-tis.	1g	-tis.
2G\	Lau-	.	.	2B-\	Lau-	.	.
2F\	-da-	.	.	2c\	-da-	1r	.
2D\	.	.	.	2.d\	.	.	.
1E-i	-mus	.	.	.	.	2r	.
.	.	.	.	4B-\	.	.	.
.	.	.	.	2c\	.	2g/	Lau-
=13	=13	=13	=13	=13	=13	=13	=13
1D	te,	1f	Lau-	1.d	.	2f/	-da-
.	.	.	.	.	.	2.a/	.
1r	.	1d	-da-	.	.	.	.
.	.	.	.	.	.	4g/	.
.	.	.	.	2G/	.	2.b-\	.
1r	.	1e-i	-mus	1g	-mus	.	.
.	.	.	.	.	.	4a/	.
.	.	.	.	.	.	4b-\	-mus
.	.	.	.	.	.	4g/	.
=14	=14	=14	=14	=14	=14	=14	=14
2r	.	1d	te,	1f	te,	1a	te,
2D\	be-	.	.	.	.	.	.
2E-i\	-ne-	1r	.	2B-\	be-	2g/	be-
2C/	-di-	.	.	2c\	-ne-	2e/	-ne-
1D	-ci-	1f	be-	2A/	-di-	2f/	-di-
.	.	.	.	[2F/	.	[2a/	.
=15	=15	=15	=15	=15	=15	=15	=15
1D	-mus	1d	-ne-	4F/]	.	2a/]	.
.	.	.	.	4G/	.	.	.
.	.	.	.	4A/	.	2f/	-ci-
.	.	.	.	4F/	.	.	.
1C	te,	1e-i	-di-	2c\	-ci-	1g	-mus
.	.	.	.	2G/	-mus	.	.
1r	.	2d\	-ci-	2B-\	te,	1f	te,
.	.	[2f\	-mus	2A/	.	.	.
=16	=16	=16	=16	=16	=16	=16	=16
2r	.	2f\]	.	2B-\	ad-	1r	.
1D	ad-	2d\	.	2A/	-o-	.	.
.	.	1e-i	.	2B-\	-ra-	2r	.
2C/	-o-	.	.	2c\	.	1g	ad-
1D	-ra-	1d	te,	1A	.	.	.
.	.	.	.	.	.	2f/	-o-
=17	=17	=17	=17	=17	=17	=17	=17
1E-i	-mus	0.r	.	2G/	-mus	1g	-ra-
.	.	.	.	2.g\	.	.	.
1D	te.	.	.	.	.	1a	-mus
.	.	.	.	4f#i\	.	.	.
.	.	.	.	4f#i\	.	.	.
.	.	.	.	4e\	.	.	.
1r	.	.	.	2g\	te.	1g	te.
.	.	.	.	2G/	Glo-	.	.
=18	=18	=18	=18	=18	=18	=18	=18
0.r	.	0.r	.	2A/	-ri-	2r	.
.	.	.	.	2B-\	-fi-	2d/	Glo-
.	.	.	.	2c\	-ca-	2e/	-ri-
.	.	.	.	2d\	.	2f/	-fi-
.	.	.	.	2.G/	.	4g/	-ca-
.	.	.	.	.	.	4a/	.
.	.	.	.	.	.	4b-\	.
.	.	.	.	4A/	.	4cc\	.
=19	=19	=19	=19	=19	=19	=19	=19
0.r	.	0.r	.	4B-\	.	4dd\	.
.	.	.	.	4c\	.	4ee-i\	.
.	.	.	.	4d\	.	1dd	.
.	.	.	.	4e\	.	.	.
.	.	.	.	2f\	.	.	.
.	.	.	.	2g\	.	4cc\	.
.	.	.	.	.	.	4b-\	.
.	.	.	.	2f\	.	2a/	.
.	.	.	.	2g\	-mus	2g/	-mus
=20	=20	=20	=20	=20	=20	=20	=20
2r	.	2r	.	0d	te.	1a	te.
2D\	Gra-	1f	Gra-	.	.	.	.
2D\	-ti-	.	.	.	.	2r	.
2D\	-as	2d\	-ti-	.	.	2f/	Gra-
2C/	a-	2e-i\	-as	1r	.	2g/	-ti-
[2D\	.	2d\	a-	.	.	2b-\	-as
=21	=21	=21	=21	=21	=21	=21	=21
4D\]	.	1.f	-gi-	0.r	.	2.a/	a-
4E\	.	.	.	.	.	.	.
4F\	.	.	.	.	.	.	.
4G\	.	.	.	.	.	4b-\	.
4A\	-gi-	.	.	.	.	2cc\	.
4F\	.	.	.	.	.	.	.
1B-	-mus	2d\	-mus	.	.	2dd\	-gi-
.	.	1e-i	ti-	.	.	2b-\	-mus
2A\	ti-	.	.	.	.	2cc\	ti-
=22	=22	=22	=22	=22	=22	=22	=22
2B-\	-bi	2d\	-bi	2r	.	1f	-bi
1BB-	prop-	1f	prop-	1B-	prop-	.	.
.	.	.	.	.	.	1r	.
2BB-/	-ter	2d\	-ter	2B-\	-ter	.	.
2C/	ma-	2e-i\	ma-	2A/	ma-	2r	.
[2BB-/	.	2d\	-gnam	[2B-\	-gnam	[2dd\	prop-
=23	=23	=23	=23	=23	=23	=23	=23
4BB-/]	.	1.f	glo-	2B-\]	.	2dd\]	.
4C/	.	.	.	.	.	.	.
4D\	.	.	.	2B-\	glo-	2dd\	-ter
4E\	.	.	.	.	.	.	.
2F\	-gnam	.	.	2A/	.	2cc\	ma-
2BB-/	glo-	2d\	.	2B-\	.	2dd\	-gnam
2C/	-ri-	2e-i\	-ri-	2E-/	-ri-	2r	.
[2BB-/	-am	2d\	-am	[2B-\	-am	[2dd\	glo-
=24	=24	=24	=24	=24	=24	=24	=24
4BB-/]	.	1.f	tu-	2B-\]	.	2dd\]	.
4C/	.	.	.	.	.	.	.
4D\	.	.	.	2B-\	tu-	2dd\	-ri-
4E\	.	.	.	.	.	.	.
2F\	.	.	.	2A/	.	2cc\	-am
2BB-/	tu-	2d\	.	2B-\	.	2dd\	tu-
1C	.	1e-i	.	1E-i	-am.	1g	-am.
=25	=25	=25	=25	=25	=25	=25	=25
0BB-	-am.	0.d	-am.	2r	.	2r	.
.	.	.	.	2B-\	Do-	2dd\	Do-
.	.	.	.	2B-\	-mi-	2dd\	-mi-
.	.	.	.	2B-\	-ne	2dd\	-ne
1r	.	.	.	2.B-\	de-	1dd	de-
.	.	.	.	4G/	.	.	.
=26	=26	=26	=26	=26	=26	=26	=26
0.r	.	0.r	.	2A/	-us,	2cc\	-us,
.	.	.	.	1G	rex	1b-	rex
.	.	.	.	2F/	ce-	2a/	ce-
.	.	.	.	2B-\	-les-	1g	-les-
.	.	.	.	2c\	.	.	.
=27	=27	=27	=27	=27	=27	=27	=27
2r	.	0.r	.	0.d	-tis,	1f	-tis,
2B-\	de-	.	.	.	.	.	.
2B-\	-us	.	.	.	.	2r	.
2B-\	pa-	.	.	.	.	2f/	de-
2.B-\	-ter	.	.	.	.	2g/	-us
.	.	.	.	.	.	2g/	pa-
4G\	.	.	.	.	.	.	.
=28	=28	=28	=28	=28	=28	=28	=28
4A\	.	0.r	.	0.r	.	2f/	-ter
4B-\	.	.	.	.	.	.	.
2.G\	om-	.	.	.	.	2.e/	om-
4F\	.	.	.	.	.	4d/	.
4D\	.	.	.	.	.	1d	-ni-
4E\	.	.	.	.	.	.	.
4F\	-ni-	.	.	.	.	.	.
4G\	.	.	.	.	.	.	.
2E\	-po-	.	.	.	.	2c#i/	-po-
=29	=29	=29	=29	=29	=29	=29	=29
0D	-tens.	0.r	.	2r	.	0.d	-tens.
.	.	.	.	2A/	Do-	.	.
.	.	.	.	2B-\	-mi-	.	.
.	.	.	.	2A/	-ne	.	.
1r	.	.	.	1B-	fi-	.	.
=30	=30	=30	=30	=30	=30	=30	=30
1D	Do-	0.r	.	2A/	-li	0.r	.
.	.	.	.	2d\	u-	.	.
2E-i\	-mi-	.	.	2c\	-ni-	.	.
2D\	-ne	.	.	2.B-\	-ge-	.	.
1E-i	fi-	.	.	.	.	.	.
.	.	.	.	4A/	.	.	.
.	.	.	.	2G/	-ni-	.	.
=31	=31	=31	=31	=31	=31	=31	=31
2D\	-li	0.r	.	2F/	-te,	0.r	.
2G\	u-	.	.	2B-\	Je-	.	.
2F\	-ni-	.	.	2A/	-su	.	.
2.E-i\	-ge-	.	.	4G/	Chris-	.	.
.	.	.	.	2c\	.	.	.
4D\	.	.	.	2B-\	.	.	.
2C/	-ni-	.	.	.	.	.	.
.	.	.	.	4A/	.	.	.
=32	=32	=32	=32	=32	=32	=32	=32
2BB-/	-te,	0.r	.	2B-\	.	0.r	.
2B-\	Je-	.	.	2d\	.	.	.
2A\	-su	.	.	2c\	.	.	.
2.G\	Chris-	.	.	4B-\	.	.	.
.	.	.	.	2e-\	.	.	.
4F\	.	.	.	2d\	.	.	.
2E-i\	.	.	.	.	.	.	.
.	.	.	.	4c\	.	.	.
=33	=33	=33	=33	=33	=33	=33	=33
1D	-te.	2r	.	1d	-te.	2r	.
.	.	2f\	Do-	.	.	2a/	Do-
2r	.	2d\	-mi-	2B-\	Do-	2b-\	-mi-
2C/	Do-	2eni\	-ne	2c\	-mi-	2g/	-ne
2G\	-mi-	2d\	de-	4B-\	-ne	2b-\	de-
.	.	.	.	4G/	.	.	.
2F\	-ne	2f\	-us,	2c\	de-	2a/	-us,
=34	=34	=34	=34	=34	=34	=34	=34
2G\	de-	2d\	a-	2B-\	-us,	2b-\	a-
2C/	-us,	2e\	-gnus	2c\	a-	2g/	-gnus
2G\	a-	2d\	de-	4B-\	-gnus	2b-\	de-
.	.	.	.	4G/	.	.	.
2F\	-gnus	2f\	-i,	2c\	de-	2a/	-i,
2G\	de-	2d\	fi-	2B-\	-i,	2b-\	fi-
2C/	-i,	2e\	-li-	2c\	fi-	2g/	-li-
=35	=35	=35	=35	=35	=35	=35	=35
2G\	fi-	2d\	-us	4B-\	-li-	2b-\	-us
.	.	.	.	4G/	.	.	.
2F\	-li-	1f	pa-	2c\	-us	2.a/	pa-
1B-	-us	.	.	2B-\	pa-	.	.
.	.	.	.	.	.	4g/	.
.	.	2d\	.	1d	.	4g/	.
.	.	.	.	.	.	4f/	.
1A	pa-	1e	.	.	.	[1a	.
.	.	.	.	2c#i\	.	.	.
=36	=36	=36	=36	=36	=36	=36	=36
0.Dl	-tris.	0.dl	-tris.	2d\	.	2a/]	.
.	.	.	.	2A/	.	2f/	.
.	.	.	.	1B-	.	0fl	-tris.
.	.	.	.	1Al	-tris.	.	.
!!LO:LB:i:g=z
=37||	=37||	=37||	=37||	=37||	=37||	=37||	=37||
*>B	*>B	*>B	*>B	*>B	*>B	*>B	*>B
*clefF4	*	*clefGv2	*	*clefGv2	*	*clefG2	*
*k[b-]	*	*k[b-]	*	*k[b-]	*	*k[b-]	*
*M2/1	*	*M2/1	*	*M2/1	*	*M2/1	*
*met(C|)	*	*met(C|)	*	*met(C|)	*	*met(C|)	*
!!section: Qui tollis
!!!OMD: Qui tollis
0r	.	0r	.	4A/	Qui	0a	Qui
.	.	.	.	4B-\	.	.	.
.	.	.	.	4c\	.	.	.
.	.	.	.	4d\	.	.	.
.	.	.	.	2c\	.	.	.
.	.	.	.	[2d\	tol-	.	.
=38	=38	=38	=38	=38	=38	=38	=38
0r	.	0r	.	2d\]	.	0f	tol-
.	.	.	.	4c\	.	.	.
.	.	.	.	4B-\	.	.	.
.	.	.	.	2A/	-lis	.	.
.	.	.	.	2d\	pec-	.	.
=39	=39	=39	=39	=39	=39	=39	=39
0r	.	0r	.	4G/	-ca-	0g	-lis
.	.	.	.	4A/	.	.	.
.	.	.	.	4B-\	.	.	.
.	.	.	.	4c\	.	.	.
.	.	.	.	2B-\	.	.	.
.	.	.	.	[2c\	.	.	.
=40	=40	=40	=40	=40	=40	=40	=40
0r	.	0r	.	2c\]	.	1g	pec-
.	.	.	.	4B-\	.	.	.
.	.	.	.	4A/	.	.	.
.	.	.	.	2G/	.	1g	-ca-
.	.	.	.	2c\	.	.	.
=41	=41	=41	=41	=41	=41	=41	=41
0r	.	0r	.	2F/	-ta	2.f/	-ta
.	.	.	.	2.f\	mun-	.	.
.	.	.	.	.	.	4g/	.
.	.	.	.	.	.	4a/	.
.	.	.	.	4e\	.	4g/	.
.	.	.	.	4d\	.	[2b-\	mun-
.	.	.	.	4c\	.	.	.
=42	=42	=42	=42	=42	=42	=42	=42
0r	.	0r	.	4d\	.	4b-\]	.
.	.	.	.	4c\	.	4cc\	.
.	.	.	.	1f	.	2a/	.
.	.	.	.	.	.	1g	.
.	.	.	.	2e\	.	.	.
=43	=43	=43	=43	=43	=43	=43	=43
1r	.	1r	.	1f	-di,	1f	-di,
1BB-	mi-	[1B-	mi-	1d	.	2r	.
.	.	.	.	.	.	2f/	mi-
=44	=44	=44	=44	=44	=44	=44	=44
1E-	-se-	1B-]	.	1B-	mi-	1g	-se-
1E-i	-re-	1G	-se-	1c	-se-	1g	-re-
=45	=45	=45	=45	=45	=45	=45	=45
1D	-re	1A	-re-	1d	-re-	1f	-re
[1E-i	no-	2G/	-re	2B-\	-re	[1g	no-
.	.	[2B-\	no-	2G/	.	.	.
=46	=46	=46	=46	=46	=46	=46	=46
1E-]	.	2B-\]	.	2.B-\	no-	2g/]	.
.	.	2G/	.	.	.	4f#i/	.
.	.	.	.	4c\	.	4e/	.
1D	-bis,	1A	.	1d	-bis,	1f#i	.
=47	=47	=47	=47	=47	=47	=47	=47
1r	.	0G	-bis.	2r	.	0g	-bis.
.	.	.	.	1B-	qui	.	.
1E-	qui	.	.	.	.	.	.
.	.	.	.	[2c\	tol-	.	.
=48	=48	=48	=48	=48	=48	=48	=48
1C	tol-	0r	.	4c\]	.	0r	.
.	.	.	.	4A/	.	.	.
.	.	.	.	2.A/	-lis	.	.
1D	-lis	.	.	.	.	.	.
.	.	.	.	4F/	.	.	.
.	.	.	.	2B-\	pec-	.	.
=49	=49	=49	=49	=49	=49	=49	=49
1D	pec-	0r	.	2A/	-ca-	0r	.
.	.	.	.	2.F/	.	.	.
1D	-ca-	.	.	.	.	.	.
.	.	.	.	4G/	.	.	.
.	.	.	.	4A/	.	.	.
.	.	.	.	4B-\	.	.	.
=50	=50	=50	=50	=50	=50	=50	=50
4C/	-ta	0r	.	2c\	-ta	0r	.
4D\	.	.	.	.	.	.	.
4E\	.	.	.	4G/	mun-	.	.
4F\	.	.	.	4A/	.	.	.
2G\	.	.	.	4B-\	.	.	.
.	.	.	.	4c\	.	.	.
[2F\	mun-	.	.	[2d\	.	.	.
=51	=51	=51	=51	=51	=51	=51	=51
4F\]	.	0r	.	4d\]	.	0r	.
4E\	.	.	.	4c\	.	.	.
2C/	.	.	.	1c	.	.	.
1D	.	.	.	.	.	.	.
.	.	.	.	2Bni\	.	.	.
=52	=52	=52	=52	=52	=52	=52	=52
1C	-di.	1r	.	1c	-di.	0r	.
1r	.	1c	Sus-	1r	.	.	.
=53	=53	=53	=53	=53	=53	=53	=53
1.D	Sus-	1A	.	1.F	Sus-	1.f	Sus-
.	.	1B-	-ci-	.	.	.	.
2D\	-ci-	.	.	2F/	-ci-	2f/	-ci-
=54	=54	=54	=54	=54	=54	=54	=54
1D	-pe	1A	-pe	1F	-pe	1f	-pe
1C	de-	1c	de-	1G	de-	1e	de-
=55	=55	=55	=55	=55	=55	=55	=55
1D	-pre-	1A	-pre-	1F	-pre-	1f	-pre-
1GG	-ca-	1B-	-ca-	1G	-ca-	1d	-ca-
=56	=56	=56	=56	=56	=56	=56	=56
1D	-ti-	1A	-ti-	2.F/	-ti-	1f	-ti-
.	.	.	.	4G/	.	.	.
2.C/	-o-	[1c	-o-	2A/	-o-	2.e/	-o-
.	.	.	.	[2G/	.	.	.
4BB-/	.	.	.	.	.	4d/	.
=57	=57	=57	=57	=57	=57	=57	=57
2C/	.	2c\]	.	2G/]	.	2e/	.
2D\	-nem	2A/	-nem	2F/	-nem	2f/	-nem
1GG	nos-	1B-	nos-	1G	nos-	2.d/	nos-
.	.	.	.	.	.	4e/	.
=58	=58	=58	=58	=58	=58	=58	=58
[0D	-tram.	0A	-tram.	1F	-tram.	0f	-tram.
.	.	.	.	2r	.	.	.
.	.	.	.	2F/	Qui	.	.
=59	=59	=59	=59	=59	=59	=59	=59
0D]	.	0r	.	4F/	se-	2r	.
.	.	.	.	4G/	.	.	.
.	.	.	.	4A/	.	2f/	Qui
.	.	.	.	4B-\	.	.	.
.	.	.	.	2A/	.	4f/	se-
.	.	.	.	.	.	4g/	.
.	.	.	.	2D/	-des	4a/	.
.	.	.	.	.	.	4b-\	.
=60	=60	=60	=60	=60	=60	=60	=60
0r	.	0r	.	2r	.	2a/	.
.	.	.	.	2F/	ad	2d/	-des
.	.	.	.	2G/	dex-	2r	.
.	.	.	.	2A/	-te-	2f/	ad
=61	=61	=61	=61	=61	=61	=61	=61
0r	.	0r	.	2B-\	-ram	2g/	dex-
.	.	.	.	2c\	pa-	2a/	-te-
.	.	.	.	2d\	.	2b-\	-ram
.	.	.	.	2e\	.	[2cc\	pa-
=62	=62	=62	=62	=62	=62	=62	=62
0r	.	0r	.	2f\	.	4cc\]	.
.	.	.	.	.	.	4b-\	.
.	.	.	.	2.g\	.	4a/	.
.	.	.	.	.	.	4g/	.
.	.	.	.	.	.	1a	.
.	.	.	.	4f#i\	.	.	.
.	.	.	.	4f#i\	.	.	.
.	.	.	.	4e\	.	.	.
=63	=63	=63	=63	=63	=63	=63	=63
2r	.	2r	.	2g\	-tris,	0g	-tris,
2G\	mi-	1B-	mi-	2d\	mi-	.	.
2G\	-se-	.	.	2d\	-se-	.	.
2G\	-re-	2G/	-se-	2B-\	-re-	.	.
=64	=64	=64	=64	=64	=64	=64	=64
2F\	-re	2A/	-re-	2c\	-re	2r	.
2.B-\	no-	2G/	-re	2d\	no-	2d/	mi-
.	.	[1B-	no-	1G	-bis.	2d/	-se-
4A\	.	.	.	.	.	.	.
[2G\	.	.	.	.	.	2d/	-re-
=65	=65	=65	=65	=65	=65	=65	=65
4G\]	.	2B-\]	.	0r	.	2G/	-re
4F\	.	.	.	.	.	.	.
2E\	.	2G/	.	.	.	2.g/	no-
1D	-bis.	1A	.	.	.	.	.
.	.	.	.	.	.	4f#i/	.
.	.	.	.	.	.	4f#i/	.
.	.	.	.	.	.	4e/	.
=66	=66	=66	=66	=66	=66	=66	=66
0r	.	0G	-bis.	2r	.	0g	-bis.
.	.	.	.	2d\	Quo-	.	.
.	.	.	.	2e\	-ni-	.	.
.	.	.	.	2d\	-am	.	.
=67	=67	=67	=67	=67	=67	=67	=67
0r	.	0r	.	2.g\	tu	2r	.
.	.	.	.	.	.	2g/	Quo-
.	.	.	.	4e\	.	.	.
.	.	.	.	4f\	so-	2a/	-ni-
.	.	.	.	4g\	.	.	.
.	.	.	.	[2e\	-lus	2g/	-am
=68	=68	=68	=68	=68	=68	=68	=68
0r	.	0r	.	4e\]	.	2.cc\	tu
.	.	.	.	4d\	.	.	.
.	.	.	.	4e\	.	.	.
.	.	.	.	4c\	.	4a/	.
.	.	.	.	1d	sanc-	4b-\	so-
.	.	.	.	.	.	4cc\	.
.	.	.	.	.	.	[2a/	-lus
=69	=69	=69	=69	=69	=69	=69	=69
1r	.	0r	.	2c\	.	4a/]	.
.	.	.	.	.	.	4g/	.
.	.	.	.	2A/	.	4a/	.
.	.	.	.	.	.	4f/	.
2r	.	.	.	2B-\	.	1g	sanc-
2C/	Tu	.	.	2c\	.	.	.
=70	=70	=70	=70	=70	=70	=70	=70
2D\	so-	0r	.	1F	-tus.	1f	-tus.
2.F\	-lus	.	.	.	.	.	.
.	.	.	.	1r	.	2r	.
4D\	.	.	.	.	.	.	.
4E\	.	.	.	.	.	2c/	Tu
4F\	.	.	.	.	.	.	.
=71	=71	=71	=71	=71	=71	=71	=71
4BB-/	do-	0r	.	0r	.	2d/	so-
4C/	.	.	.	.	.	.	.
4D\	.	.	.	.	.	2.f/	-lus
4E\	.	.	.	.	.	.	.
2F\	.	.	.	.	.	.	.
.	.	.	.	.	.	4d/	.
4G\	.	.	.	.	.	4e/	.
4F\	.	.	.	.	.	4f/	.
=72	=72	=72	=72	=72	=72	=72	=72
4G\	.	0r	.	1r	.	1B-	.
4F\	.	.	.	.	.	.	.
1B-	.	.	.	.	.	.	.
.	.	.	.	2r	.	1c	.
2A\	-mi-	.	.	2c\	Tu	.	.
=73	=73	=73	=73	=73	=73	=73	=73
1B-	-nus.	0r	.	2d\	so-	4B-/	do-
.	.	.	.	.	.	4c/	.
.	.	.	.	2.f\	-lus	4d/	.
.	.	.	.	.	.	4e/	.
1r	.	.	.	.	.	2f/	.
.	.	.	.	4d\	.	.	.
.	.	.	.	4e\	.	4g/	.
.	.	.	.	4f\	.	4f/	.
=74	=74	=74	=74	=74	=74	=74	=74
1r	.	1r	.	1B-	do-	4g/	.
.	.	.	.	.	.	4f/	.
.	.	.	.	.	.	1b-	.
1F	Tu	1f	Tu	1c	-mi-	.	.
.	.	.	.	.	.	2a/	-mi-
=75	=75	=75	=75	=75	=75	=75	=75
2.G\	so-	2d\	so-	1B-	-nus.	1b-	-nus.
.	.	2e\	-lus	.	.	.	.
4A\	.	.	.	.	.	.	.
1B-	-lus	2d\	al-	2r	.	1dd	Tu
.	.	[2f\	-tis-	2B-\	Tu	.	.
=76	=76	=76	=76	=76	=76	=76	=76
2r	.	2f\]	.	2A/	so-	2cc\	so-
2B-\	al-	2d\	-si-	2B-\	-lus	2dd\	-lus
2A\	-tis-	2e\	-mus,	2r	.	2cc\	al-
2B-\	-si-	2d\	Je-	2f\	al-	2dd\	-tis-
=77	=77	=77	=77	=77	=77	=77	=77
2F\	-mus,	2f\	-su	2f\	-tis-	2cc\	-si-
2B-\	Je-	2d\	.	2f\	-si-	1dd	-mus,
2G\	-su	1e	Chris-	2g\	-mus,	.	.
2A\	Chris-	.	.	2e\	Je-	2cc\	Je-
=78	=78	=78	=78	=78	=78	=78	=78
2F\	.	[0d	-te.	2f\	-su	2dd\	-su
1G	.	.	.	2d\	.	1b-	Chris-
.	.	.	.	1g	Chris-	.	.
4F\	.	.	.	.	.	4a/	.
4E\	.	.	.	.	.	4g/	.
=79	=79	=79	=79	=79	=79	=79	=79
0D	-te.	0d]	.	1f	-te.	1a	-te.
.	.	.	.	2r	.	2r	.
.	.	.	.	2f\	Cum	2a/	Cum
=80	=80	=80	=80	=80	=80	=80	=80
0r	.	0r	.	2.f\	sanc-	2.a/	sanc-
.	.	.	.	4d\	.	4b-\	.
.	.	.	.	2e\	.	2cc\	.
.	.	.	.	2d\	-to	2dd\	-to
=81	=81	=81	=81	=81	=81	=81	=81
0r	.	0r	.	2.e\	spi-	2.g/	spi-
.	.	.	.	4c\	.	4a/	.
.	.	.	.	2d\	.	2b-\	.
.	.	.	.	2c\	.	2cc\	.
=82	=82	=82	=82	=82	=82	=82	=82
0r	.	0r	.	2d\	.	1f	.
.	.	.	.	1f	.	.	.
.	.	.	.	.	.	1g	-ri-
.	.	.	.	2e\	-ri-	.	.
=83	=83	=83	=83	=83	=83	=83	=83
*	*	*	*	*M3/1	*	*M3/1	*
*	*	*	*	*met(3)	*	*met(3)	*
*rscale:2/3	*	*rscale:2/3	*	*	*	*	*
!!primary-mensuration: met(3)
0.r	.	0.r	.	1f	-tu,	0f	-tu,
.	.	.	.	1d	.	.	.
.	.	.	.	1e	.	1r	.
=84	=84	=84	=84	=84	=84	=84	=84
*	*	*M3/1	*	*	*	*	*
*	*	*met(3)	*	*	*	*	*
*	*	*rscale:1	*	*	*	*	*
0.r	.	1f	in	0d	in	1a	in
.	.	1d	glo-	.	.	1b-	glo-
.	.	1e	-ri-	1c	.	1cc	-ri-
=85	=85	=85	=85	=85	=85	=85	=85
*M3/1	*	*	*	*	*	*	*
*met(3)	*	*	*	*	*	*	*
*rscale:1	*	*	*	*	*	*	*
1B-	in	1d	-a	1f	glo-	1dd	-a
1G	glo-	1e	.	1g	.	1b-	.
1A	-ri-	1c	.	1f	-ri-	1cc	.
=86	=86	=86	=86	=86	=86	=86	=86
1G	-a	1d	de-	1g	-a	1b-	de-
1A	.	1c	.	1e	.	1cc	.
1F	.	1d	.	1f	.	1a	.
=87	=87	=87	=87	=87	=87	=87	=87
1G	de-	1B-	-i	1e	de-	1b-	-i
1F	.	1c	.	1f	.	1a	.
1G	.	1B-	.	1d	.	1b-	.
=88	=88	=88	=88	=88	=88	=88	=88
1E-	-i	1c	pa-	1e-	-i	1g	pa-
1F	.	1A	.	1d	.	1a	.
1E-i	.	1B-	.	1e-i	.	1g	.
=89	=89	=89	=89	=89	=89	=89	=89
1F	pa-	1A	-tris.	1c	pa-	1a	-tris.
1D	.	1B-	.	1d	.	1f	.
1E-i	.	1G	.	1c	.	1g	.
=90	=90	=90	=90	=90	=90	=90	=90
1D	-tris.	1A	A-	1d	-tris.	1f	A-
1E-i	.	1G	.	1c	.	1g	.
1D	.	1B-	.	1d	.	1f	.
=91	=91	=91	=91	=91	=91	=91	=91
1E-i	A-	1G	.	1B-	A-	1g	.
1C	.	0A	.	1c	.	1e	.
1D	.	.	.	1A	.	1f	.
=92	=92	=92	=92	=92	=92	=92	=92
1BB-	.	[0.Gl	-men.	1B-	.	1.g	.
0C	.	.	.	1.G	.	.	.
.	.	.	.	.	.	2f/	.
.	.	.	.	.	.	1e-i	.
.	.	.	.	2A/	.	.	.
=93	=93	=93	=93	=93	=93	=93	=93
1BB-	.	0.G_	.	1B-	.	1d	.
0C	.	.	.	1G	.	0e-i	.
.	.	.	.	1c	.	.	.
=94	=94	=94	=94	=94	=94	=94	=94
0.GGl	-men.	0.G]	.	0.B-l	-men.	0.dl	-men.
==	==	==	==	==	==	==	==
*-	*-	*-	*-	*-	*-	*-	*-
!!!rscale-alt: 1/4
!!!RDF**kern: l=long note in original notation
!!!RDF**kern: i=editorial accidental
!!!ENC: Jesse Rodin; Victoria Chang 2011/09/05
!!!END: 2011/09/05/
!!!EED: Jesse Rodin
!!!EEV: 2018/01/20/
!!attribution-level@Jos: 1 (secure, core group [checkmark])
!!!ONB: Translated from MusicXML and edited on 2018/01/20/ by Craig Sapp
!!muse2ps: T^@{OPR}^u^@{ONM}{. }@{OTL}^C^@{COM}\n@{SCT}^i2I150v90,90,90,120c140z18l2700t130
